packages/icons/svg/Outline/monitor.svg

<svg fill="none" height="24" viewBox="0 0 24 24" width="24" xmlns="http://www.w3.org/2000/svg"><path clip-rule="evenodd" d="m20 14.0001c0 .551-.448 1-1 1h-6.913-.174-6.91298c-.552 0-1-.449-1-1v-8.00003c0-.551.448-1 1-1h13.99998c.552 0 1 .449 1 1zm-1-11.0001h-14c-1.654 0-3 1.346-3 3v8c0 1.654 1.346 3 3 3h6v2h-4c-.55 0-1 .45-1 1s.45 1 1 1h10c.55 0 1-.45 1-1s-.45-1-1-1h-4v-2h6c1.654 0 3-1.346 3-3v-8c0-1.654-1.346-3-3-3z" fill="#6b7280" fill-rule="evenodd"/></svg>

<svg width="24" height="24" viewBox="0 0 24 24" fill="none" xmlns="http://www.w3.org/2000/svg">
<g id="Icon/Outline/monitor">
<path id="Mask" fill-rule="evenodd" clip-rule="evenodd" d="M20 14C20 14.551 19.552 15 19 15H12.087H11.913H5C4.448 15 4 14.551 4 14V6C4 5.449 4.448 5 5 5H19C19.552 5 20 5.449 20 6V14ZM19 3H5C3.346 3 2 4.346 2 6V14C2 15.654 3.346 17 5 17H11V19H7C6.45 19 6 19.45 6 20C6 20.55 6.45 21 7 21H17C17.55 21 18 20.55 18 20C18 19.45 17.55 19 17 19H13V17H19C20.654 17 22 15.654 22 14V6C22 4.346 20.654 3 19 3Z" fill="#000000"/>
</g>
</svg>
